raycast/extensions/amzn-raycast-extension/assets/ticket.svg

<svg width="16" height="16" viewBox="0 0 16 16" fill="none" xmlns="http://www.w3.org/2000/svg">
<rect x="1.5" y="1.5" width="13" height="13" rx="3.5" stroke="white"/>
<path d="M6.4173 6.72188C6.03082 6.72188 5.65405 6.72188 5.27 6.72188C5.27 6.25756 5.27 5.80058 5.27 5.33626C5.6735 5.24828 6.07943 5.16275 6.49022 5.07477C6.60204 4.38318 6.71385 3.69403 6.82566 3C7.43091 3 8.02887 3 8.63655 3C8.64385 3.09775 8.63898 3.19306 8.64141 3.29081C8.64141 3.39101 8.64141 3.4912 8.64141 3.5914C8.64141 3.68915 8.64141 3.7869 8.64141 3.88465C8.64141 3.9824 8.64141 4.08015 8.64141 4.1779C8.64141 4.27565 8.64141 4.37341 8.64141 4.47116C8.64141 4.57135 8.64141 4.67155 8.64141 4.77174C8.64141 4.86949 8.64141 4.96725 8.64141 5.07477C9.3366 5.07477 10.0269 5.07477 10.7197 5.07477C10.7197 5.62707 10.7197 6.16714 10.7197 6.71944C10.0269 6.71944 9.33903 6.71944 8.656 6.71944C8.63412 6.75365 8.64141 6.78298 8.64141 6.80986C8.64141 8.07574 8.64141 9.33917 8.64141 10.6051C8.64141 10.6955 8.656 10.7834 8.68274 10.869C8.73864 11.0498 8.86018 11.1622 9.03762 11.216C9.10811 11.238 9.1786 11.2502 9.25153 11.2502C9.70607 11.2502 10.1582 11.2502 10.6127 11.2502C10.6443 11.2502 10.6784 11.2502 10.7027 11.2502C10.727 11.2673 10.7221 11.2893 10.7221 11.3064C10.7221 11.7341 10.7221 12.1642 10.7245 12.5918C10.7245 12.6456 10.7002 12.6652 10.6565 12.6847C10.2919 12.8338 9.91755 12.9389 9.52377 12.978C8.92095 13.0366 8.33271 12.9804 7.75906 12.7825C7.43578 12.67 7.14652 12.499 6.91074 12.2448C6.67253 11.9882 6.52912 11.6828 6.46349 11.3382C6.42946 11.1622 6.41487 10.9838 6.41487 10.8054C6.41487 9.48091 6.41487 8.15638 6.41487 6.83185C6.4173 6.80008 6.4173 6.76831 6.4173 6.72188Z" fill="white"/>
</svg>

<svg width="16" height="16" fill="none" xmlns="http://www.w3.org/2000/svg"><rect x="1.5" y="1.5" width="13" height="13" rx="3.5" stroke="#fff"/><path d="M6.417 6.722H5.27V5.336c.404-.088.81-.173 1.22-.261L6.826 3h1.81c.008.098.003.193.005.29v1.785h2.079v1.644H8.656c-.022.035-.015.064-.015.09v3.796c0 .09.015.178.042.264a.5.5 0 00.355.347c.07.022.14.034.214.034H10.702c.025.017.02.04.02.056 0 .428 0 .858.003 1.286 0 .054-.025.073-.069.093-.364.149-.738.254-1.132.293a4.119 4.119 0 01-1.765-.195 2.05 2.05 0 01-.848-.538 1.795 1.795 0 01-.448-.907 2.804 2.804 0 01-.048-.533V6.832c.002-.032.002-.064.002-.11z" fill="#fff"/></svg>
